X: 1
T: Mrs Stewart Nicholson's Strathspey
C: Nathaniel Gow
R: strathspey
B: RSCDS 6-6 #1
Z: 2011 John Chambers <jc:trillian.mit.edu>
M: C
L: 1/16
K: D
A2 |\
"D"F3E D2F2 "Em"B,B,3 E4 | "A7"DCB,A, A,2B,C "D"D2F2A2d2 |\
"D"F3E D2F2 "Em"B,B,3 E4 | "A7"DCB,A, A,2B,C "D"D4 D2 :|
B2 |\
"D"A2d2 "Bm"d2ef "Em"eB3 B3e | "A7"c3B A2Bc "D"defg a3d |\
"D"A2d2 d2ef "G"g2B2 "Em"B3e | "A7"c3B ABcA "D"d4 D2 ||
B2 |\
"D"A2d2 "Bm"d2ef "Em"e2B2 B3e | "A7"c3B A2Bc "D"defg a3d |\
"D"A2d2 "G"B2d2 "F#m"AB3 "Bm"F3D | "Em"DCB,A, "A7"B,2C2 "D"D4 D2 |]
